X:1
T:Title
%%score { 1 | 2 }
L:1/8
Q:1/4=108
M:6/8
K:Bb
V:1 treble nm="Grand Piano"
V:2 bass 
V:1
 [Fd]3 [DFB]3 | [DF]3 [DF][B,D][EG] | [DF]3 [DF][B,D][EG] | [DF]6 | F2 e A2 A | A2 F G2 F | %6
w: John~R.~Sweney *||||||
 F2 d B2 B | B3 DFB | [Fd]3 [DFB]3 | [DF]3 [DF][B,D][EG] | [DF]3 [DF][B,D][EG] | [DF]6 | %12
w: ||||||
 [EG]2 [Ge] [Ge]2 [Ge] | e2 d B2 d | d2 c G2 A | [DB]6 | A2 G A2 G | F2 G F2 E | %18
w: ||||||
 D2 [B,DF] [DFB]2 [DFB] | [DFB]6 | [CFA]2 [Ae] [Ae]2 [Ae] | [Ae]6 | F2 [Fd] [Fd]2 [Fd] | [Fd]6 | %24
w: ||||||
 A2 G A2 G | F2 G F2 E | D2 [B,DF] [DFB]2 [DFB] | [DFB]6 | [CFA]2 [Ae] [Ae]2 [Ae] | [Ae]6 | %30
w: ||||||
 F2 [Fd] [Fd]2 [Fd] | [Fd]6 | d2 c =B2 c | f2 e d2 c | [Ec]2 [DB] [DB]2 [Fd] | [DF]6 | %36
w: ||||||
 G2 G G2 [GB] | [FB]2 [FB] [FB]2 [Fd] | [Fc]3 [B=e][Bd][Be] | [Af]6 | [Fd]3 [DFB]3 | %41
w: |||||
 [DF]3 [DF][B,D][EG] | [DF]3 [DF][B,D][EG] | [DF]6 | F2 e A2 A | A2 F G2 F | F2 d B2 B | B3 DFB | %48
w: |||||||
 [Fd]3 [DFB]3 | [DF]3 [DF][B,D][EG] | [DF]3 [DF][B,D][EG] | [DF]6 | [EG]2 [Ge] [Ge]2 [Ge] | %53
w: |||||
 e2 d B2 d | d2 c G2 A |[M:7/4] [DB]6 z2 z2 z4 |] %56
w: |||
V:2
 [B,,B,]3 B,,3 | [B,,B,]3 [B,,B,][B,,F,][B,,B,] | [B,,B,]3 [B,,B,][B,,F,][B,,B,] | [B,,B,]6 | %4
 [F,A,C]2 [F,A,F] [F,CF]2 [F,CF] | [F,CF]2 [F,A,E] [F,B,E]2 [F,CE] | [B,D]2 [B,F] [B,DF]2 [B,DF] | %7
 [B,DF]3[K:bass] D,F,B, | [B,,B,]3 B,,3 | [B,,B,]3 [B,,B,][B,,F,][B,,B,] | %10
 [B,,B,]3 [B,,B,][B,,F,][B,,B,] | [B,,B,]6 | [E,B,]2 [E,B,] [E,B,]2 [E,B,] | %13
 [B,G]2 [B,F] [B,DF]2 [B,F] | [F,B,F]2[K:bass] [F,A,E] [F,CE]3 | [B,,B,]6 | %16
 [F,CE]2 [F,B,E] [F,CE]2 [F,B,E] | [F,A,E]2 [F,B,E] [F,A,E]2 [F,A,C] | [B,,F,B,]2 B,, B,,2 B,, | %19
 B,,6 | F,2 [F,C] [F,C]2 [F,C] | [F,C]6 | [B,D]2 [B,,B,] [B,,B,]2 [B,,B,] | [B,,B,]6 | %24
 [F,CE]2 [F,B,E] [F,CE]2 [F,B,E] | [F,A,E]2 [F,B,E] [F,A,E]2 [F,A,C] | [B,,F,B,]2 B,, B,,2 B,, | %27
 B,,6 | F,2 [F,C] [F,C]2 [F,C] | [F,C]6 | [B,D]2 [B,,B,] [B,,B,]2 [B,,B,] | [B,,B,]6 | %32
 [F,B,F]2 [F,A,E] [F,_A,D]2 [F,=A,E] | [F,DF]2 [F,CF] [F,B,F]2 [F,A,E] | %34
 [B,,F,]2 [B,,F,] [B,,F,]2 [B,,B,] | [B,,B,]6 | [E,B,E]2 [E,B,E] [E,B,E]2 [E,B,] | %37
 [D,B,]2 [D,B,] [D,B,]2 [B,,B,] | [C,A,]3 [C,C][C,C][C,C] | [F,C]6 | [B,,B,]3 B,,3 | %41
 [B,,B,]3 [B,,B,][B,,F,][B,,B,] | [B,,B,]3 [B,,B,][B,,F,][B,,B,] | [B,,B,]6 | %44
 [F,A,C]2 [F,A,F] [F,CF]2 [F,CF] | [F,CF]2 [F,A,E] [F,B,E]2 [F,CE] | [B,D]2 [B,F] [B,DF]2 [B,DF] | %47
 [B,DF]3[K:bass] D,F,B, | [B,,B,]3 B,,3 | [B,,B,]3 [B,,B,][B,,F,][B,,B,] | %50
 [B,,B,]3 [B,,B,][B,,F,][B,,B,] | [B,,B,]6 | [E,B,]2 [E,B,] [E,B,]2 [E,B,] | %53
 [B,G]2 [B,F] [B,DF]2 [B,F] | [F,B,F]2[K:bass] [F,A,E] [F,CE]3 |[M:7/4] [B,,B,]6 z2 z2 z4 |] %56

